X:1
T:[ID 2-16]
T:[ID 2-16]
T:Bezeichnung standardisiert: Menuett Menuet
T:Urheber unbekannt Datum in der hier transkribierten schriftlichen Quelle: 1767
C:Urheber unbekannt
C:Datum in der hier transkribierten schriftlichen Quelle: 1767
L:1/8
M:3/4
K:D
V:1 treble 
V:1
 de f2 g2 | a4 f2 | g2 b"^1)"f e2 | cdec A2 | de f2 g2 | a4 f2 |{f} g2 e2 cA | d6 :: d2 d2 _c2 | %9
 B_cdB G2 | e2 e2 d2 | cdec A2 |"^O)" de f2 g2 | a4 f2 |"^O)" de f2 g2 | a4 f2 |{f} g2 e2 cA | %17
 d6 :| %18

